X: 1
T: First Month Of Summer, The
M: 4/4
L: 1/8
R: reel
K: Amaj
AFDF E2CE|A,ECE dBcB|AFDF E2CF|EFAB cecB:|
Ac~c2 ecfc|ecAc defa|ec~c2 fcec|dBBA Bcdf|
ec~c2 ecfc|ecAc defg|azge faec|dBBA BdcB||
